packages/webapp/public/images/template-logos/bamboohr-basic.svg

<svg width="62" height="62" viewBox="0 0 62 62" fill="none" xmlns="http://www.w3.org/2000/svg">
<path d="M40.791 45.5227C36.2303 45.5227 32.3402 41.901 32.3402 37.072C32.3402 32.2429 35.6937 28.2188 40.9252 28.2188C46.2907 28.2188 49.3759 32.5112 49.3759 36.9378C49.3759 41.7668 46.0224 45.5227 40.791 45.5227ZM41.1934 24.7311C36.901 24.7311 34.6206 26.2066 33.0109 27.8163L32.6085 28.2188V14H28.9868V37.2061C28.9868 44.3154 34.4865 48.8762 40.791 48.8762C47.7663 48.8762 52.9977 43.5106 52.9977 36.6695C53.1318 30.2308 47.498 24.7311 41.1934 24.7311Z" fill="#73C41D"/>
<path d="M27.2429 29.4259C27.2429 29.4259 25.6332 29.1576 24.2919 28.8893C22.8163 28.6211 22.1456 28.4869 20.1336 27.6821C18.2556 26.8773 16.3777 24.9993 14.768 22.8531C13.0242 20.7069 9 17.3534 9 17.3534C9 17.3534 10.2072 17.4875 11.5486 17.7558C12.6217 18.024 15.3045 18.8289 17.9873 20.3044C18.658 20.5727 18.9263 20.841 19.597 21.2434C20.536 21.78 21.4749 22.719 22.4139 23.6579C23.487 24.731 24.426 25.67 25.2308 26.609C24.2919 24.9993 22.0115 19.0972 17.5849 14.2682C17.1825 13.7316 20.6701 16.012 21.6091 16.951C24.2919 19.902 24.6943 21.5117 25.6332 24.1945L27.2429 29.4259Z" fill="#73C41D"/>
</svg>

<svg xmlns="http://www.w3.org/2000/svg" width="62" height="62" fill="#73c41d"><path d="M40.791 45.523c-4.561 0-8.451-3.622-8.451-8.451s3.354-8.853 8.585-8.853c5.366 0 8.451 4.292 8.451 8.719 0 4.829-3.353 8.585-8.585 8.585zm.402-20.792c-4.292 0-6.573 1.476-8.182 3.085l-.402.403V14h-3.622v23.206c0 7.109 5.5 11.67 11.804 11.67 6.975 0 12.207-5.366 12.207-12.207.134-6.439-5.5-11.938-11.804-11.938zm-13.95 4.695l-2.951-.537c-1.476-.268-2.146-.402-4.158-1.207-1.878-.805-3.756-2.683-5.366-4.829-1.744-2.146-5.768-5.5-5.768-5.5l2.549.402c1.073.268 3.756 1.073 6.439 2.549.671.268.939.537 1.61.939.939.537 1.878 1.476 2.817 2.415l2.817 2.951c-.939-1.61-3.219-7.512-7.646-12.341-.402-.537 3.085 1.744 4.024 2.683 2.683 2.951 3.085 4.561 4.024 7.244l1.61 5.231z"/></svg>
